X:13024
T:Musical Priest, The
R:Reel
C:Trad. O'Neill's 1748
O:Scotland, then Ireland
Z:Paul Hardy's Session Tunebook 2022 (see www.paulhardy.net). Creative Commons cc by-nc-sa licenced.
M:4/4
L:1/8
Q:1/4=130
K:D
BA|"Bm"FB BA B3d|"A"cBAf ecBA|"Bm"FB BA BcdB|"A"cBAc "Bm"B2:|
|:Bc|"Bm"d2 dc dfed|"A"(3cBA eA fA eA|"Bm"d2 dc defb|"A"afed "Bm"dB:|
|:Bc|"Bm"dB (3BAB bafb|"A"afec ABce|"Bm"dB (3BAB bafb|"A"afec "Bm"B2:|

